assets/images/Expo/Features/book.svg

<svg width="56" height="56" viewBox="0 0 56 56" fill="none" xmlns="http://www.w3.org/2000/svg">
<circle cx="28" cy="28" r="28" fill="white"/>
<path d="M18.1269 20.6749C19.3977 20.1436 21.22 19.5706 22.992 19.3926C24.9018 19.2001 26.5216 19.483 27.4607 20.4724V34.4674C26.1181 33.7063 24.4164 33.6015 22.8469 33.7595C21.1525 33.9318 19.4437 34.4214 18.1269 34.924V20.6749ZM28.8967 20.4724C29.8358 19.483 31.4556 19.2001 33.3654 19.3926C35.1374 19.5706 36.9597 20.1436 38.2305 20.6749V34.924C36.9123 34.4214 35.2049 33.9303 33.5105 33.7609C31.9395 33.6015 30.2393 33.7049 28.8967 34.4674V20.4724ZM28.1787 19.1743C26.7643 17.958 24.7137 17.7771 22.8469 17.9638C20.6729 18.1835 18.4787 18.9287 17.1117 19.5505C16.9862 19.6076 16.8799 19.6995 16.8053 19.8153C16.7306 19.9312 16.691 20.0661 16.6909 20.2039V35.9996C16.691 36.1197 16.7211 36.2379 16.7787 36.3434C16.8362 36.4488 16.9193 36.5381 17.0203 36.6031C17.1214 36.6681 17.2371 36.7068 17.3569 36.7155C17.4767 36.7242 17.5968 36.7027 17.7062 36.6529C18.9727 36.0785 21.0132 35.3878 22.9905 35.1882C25.0138 34.9843 26.7097 35.3132 27.6187 36.4476C27.6859 36.5314 27.7712 36.5991 27.8681 36.6456C27.9651 36.6921 28.0712 36.7163 28.1787 36.7163C28.2862 36.7163 28.3923 36.6921 28.4893 36.6456C28.5862 36.5991 28.6714 36.5314 28.7387 36.4476C29.6477 35.3132 31.3436 34.9843 33.3654 35.1882C35.3442 35.3878 37.3861 36.0785 38.6512 36.6529C38.7606 36.7027 38.8807 36.7242 39.0005 36.7155C39.1203 36.7068 39.236 36.6681 39.337 36.6031C39.4381 36.5381 39.5212 36.4488 39.5787 36.3434C39.6363 36.2379 39.6664 36.1197 39.6665 35.9996V20.2039C39.6664 20.0661 39.6267 19.9312 39.5521 19.8153C39.4775 19.6995 39.3712 19.6076 39.2457 19.5505C37.8787 18.9287 35.6845 18.1835 33.5105 17.9638C31.6437 17.7756 29.5931 17.958 28.1787 19.1743Z" fill="#010107"/>
</svg>

<svg xmlns="http://www.w3.org/2000/svg" width="56" height="56" fill="none" viewBox="0 0 56 56"><circle cx="28" cy="28" r="28" fill="#fff"/><path fill="#010107" d="M18.127 20.675c1.27-.531 3.093-1.104 4.865-1.282 1.91-.193 3.53.09 4.469 1.08v13.994c-1.343-.76-3.045-.865-4.614-.707-1.695.172-3.403.661-4.72 1.164v-14.25zm10.77-.203c.939-.989 2.559-1.272 4.468-1.08 1.772.179 3.595.752 4.865 1.283v14.249c-1.318-.503-3.025-.994-4.72-1.163-1.57-.16-3.27-.056-4.613.706V20.472zm-.718-1.298c-1.415-1.216-3.465-1.397-5.332-1.21-2.174.22-4.368.965-5.735 1.587a.718.718 0 0 0-.421.653V36a.719.719 0 0 0 1.015.653c1.267-.575 3.307-1.265 5.285-1.465 2.023-.204 3.719.125 4.628 1.26a.718.718 0 0 0 1.12 0c.909-1.135 2.605-1.464 4.626-1.26 1.98.2 4.021.89 5.286 1.465A.718.718 0 0 0 39.666 36V20.204a.719.719 0 0 0-.42-.654c-1.367-.621-3.562-1.367-5.736-1.586-1.866-.188-3.917-.006-5.331 1.21z"/></svg>
